X:499
T: ICH WAR ERST SECHZEHN SOMMER ALT
N: F0950
O: Europa, Mitteleuropa, Deutschland
R: Liebes - Lied
M: 6/8
L: 1/8
K: Bb
f | f2ffge | d2dd2
f | e2cd=ef | c3c2
f | B2Be2d | cded2
f | fdBecA | B3Bz

